wp-content/plugins/wp-mail-smtp/assets/images/providers/mandrill.svg

<?xml version="1.0" encoding="UTF-8" standalone="no"?>
<svg width="256px" height="227px" viewBox="0 0 256 227" version="1.1" xmlns="http://www.w3.org/2000/svg" xmlns:xlink="http://www.w3.org/1999/xlink" preserveAspectRatio="xMidYMid">
	<g>
		<path d="M0.832426495,0.4518607 L255.680619,0.4518607 L255.680619,226.093573 L0.832426495,226.093573 L0.832426495,0.4518607 L0.832426495,0.4518607 Z" fill="#E6E6E1"></path>
		<path d="M255.680619,0.4518607 L0.832426495,0.4518607 L128.263888,186.691044 L255.680619,0.4518607" fill="#D8D8D3"></path>
		<path d="M101.299301,226.093573 L155.225528,226.093573 L128.263888,186.691044 L101.299301,226.093573" fill="#B4B6B4"></path>
		<path d="M128.302186,118.827369 L73.9399525,39.0383522 L73.9399525,107.529522 L104.98178,153.124508 L128.249158,118.895126 L128.302186,118.827369" fill="#1A1918"></path>
		<path d="M128.302186,118.827369 L151.713917,153.198158 L182.558363,108.101043 L182.558363,39.0383522 L128.302186,118.827369" fill="#ED9D4A"></path>
		<path d="M128.249158,118.895126 L104.98178,153.124508 L128.325754,187.39808 L151.713917,153.198158 L128.302186,118.827369 L128.249158,118.895126" fill="#BB7731"></path>
		<path d="M35.332839,187.489406 L73.9399525,187.489406 L73.9399525,107.529522 L35.332839,50.8605839 L35.332839,187.489406" fill="#4CB2D4"></path>
		<path d="M35.332839,39.0383522 L35.332839,50.8605839 L73.9399525,107.529522 L73.9399525,39.0383522 L35.332839,39.0383522" fill="#1B82AD"></path>
		<path d="M182.558363,108.101043 L182.558363,187.489406 L221.150747,187.489406 L221.150747,51.6825133 L182.558363,108.101043" fill="#C02439"></path>
		<path d="M221.150747,39.0383522 L182.558363,39.0383522 L182.558363,108.101043 L221.150747,51.6825133 L221.150747,39.0383522" fill="#8F202F"></path>
	</g>
</svg>

<svg width="256" height="227" xmlns="http://www.w3.org/2000/svg" preserveAspectRatio="xMidYMid"><path d="M.832.452h254.849v225.642H.832V.452Z" fill="#E6E6E1"/><path d="M255.68.452H.833L128.264 186.69 255.68.451" fill="#D8D8D3"/><path d="M101.3 226.094h53.926l-26.962-39.403-26.965 39.403" fill="#B4B6B4"/><path d="M128.302 118.827 73.94 39.038v68.492l31.042 45.595 23.267-34.23.053-.068" fill="#1A1918"/><path d="m128.302 118.827 23.412 34.371 30.844-45.097V39.038l-54.256 79.79" fill="#ED9D4A"/><path d="m128.25 118.895-23.268 34.23 23.344 34.273 23.388-34.2-23.412-34.37-.053.067" fill="#BB7731"/><path d="M35.333 187.49H73.94v-79.96L35.333 50.86v136.63" fill="#4CB2D4"/><path d="M35.333 39.038v11.823L73.94 107.53V39.038H35.333" fill="#1B82AD"/><path d="M182.558 108.101v79.388h38.593V51.683L182.558 108.1" fill="#C02439"/><path d="M221.15 39.038h-38.592v69.063l38.593-56.418V39.038" fill="#8F202F"/></svg>
